X: 338
T: Bin Gülle Bahar
C: Emin Ongan
O: Turkey
F: http://compmusic.upf.edu/node/140
N: muhayyerkurdi--sarki--turkaksagi--bin_gulle--emin_ongan
N: makam= muhayyerkurdi
N: form= sarki
N: usul= turkaksagi = 5/8
M: 5/8
L: 1/16
K: C _B   
Q: 1/4=108
%%MIDI tuningsystem comma53
g4 a4 bd' | c'2 baa4z2  | b2a2 g2f2 e2 | \
w:  Bin  gül  |  le  ba *  har   |  et  | 
a2 gfe4z2  | f2ed c4 c'2 | 
w:  me de *  sin   |  hay  | 
=b2 d'2c'2 _b2a2  | a2a2 af3 a2 | a4gf/e/ dc/B/A2  | \
w:   |  li  za man  |  dır   SAZ  | 
g4 a4 bd' | 
w:  Bin  gül  | 
c'2 baa4z2  | b2a2 g2f2 e2 | a2 gfe4z2  | \
w:  le  ba *  har   |  et  |  me de *  sin   | 
f2ed c4 c'2 | =b2 d'2c'2 _b2a2  | 
w:  hay  |   | 
a2a2 af3 a2 | a4de ^fga2  | ^fgad' c'2b2 a2 | \
w:  li  za man  |  dır   SAZ  |  Al *  *  *  dan  | 
a3/2g/ fef4z2  | 
w:  ma  *  gö *  nül   | 
f2ed a2e2 {f}ed | d2 edd4z2  | g4 ^f2_7/8e2 d2 | \
w:  her   |  gü ze *  lin   |  cev  | 
_7/8e2 ^f2ga fed2  | 
w:   | 
a2g^f g2f_7/8e ed | d4d_7/8e ^fga2  | \
w:  ri  ya *  man  |  dır   SAZ  | 
g3a a4 d'2 | c'b agf2 e2d2  | 
w:  Al *  dan  |  ma  *  gö *  nül   | 
c4 _7/8e4 d2 | dc BAB4z2  | BAGA Bcde fg | \
w:  her   |  gü *  ze *  lin   |  cev  | 
e2 d2c2 B2d2  | 
w:   | 
A2c2 c2B2 {c}BA | A4a3/2^g/ fga2  | a4 af3 a2 | \
w:  ri  ya man  |  dır   SAZ  |  Bül bül   | 
a2 a2a6  | b4 a2^g2 f2 | 
w:  gi bi  fer  |  yâd   | 
^gf fee6  | fed^c d2e2 f2 | ^g2 a2{c'}b4a2  | \
w:  e *  de *  cek   |  in  |   | 
a2d'2 ^c'2b2 {c'}ba | 
w:  le ye cek  | 
a4a3/2^g/ fga2  | ba^ga b4 a2 | a^g fee6  | \
w:  sen   SAZ  |  Bül *  *  *  bül   |  gi *  bi  *  fer  | 
fed^c de^fg ag | 
w:  yâd   | 
gf fee6  | f2ed c4 c'2 | =b2 d'2c'2 _b2a2  | \
w:  e *  de *  cek   |  in  |   | 
a2a2 af3 a2 | a4de ^fga2  | 
w:  le ye cek  |  sen   SAZ  | 
^fgad' c'2b2 a2 | a3/2g/ fef4z2  | f2ed a2e2 {f}ed | \
w:  Al *  *  *  dan  |  ma  *  gö *  nül   |  her   | 
d2 edd4z2  | 
w:  gü ze *  lin   | 
g4 ^f2_7/8e2 d2 | _7/8e2 ^f2ga fed2  | \
w:  cev  |   | 
a2g^f g2f_7/8e ed | d4d_7/8e ^fga2  | 
w:  ri  ya *  man  |  dır   SAZ  | 
g3a a4 d'2 | c'b agf2 e2d2  | c4 _7/8e4 d2 | \
w:  Al *  dan  |  ma  *  gö *  nül   |  her   | 
dc BAB4z2  | BAGA Bcde fg | 
w:  gü *  ze *  lin   |  cev  | 
e2 d2c2 B2d2  | A2c2 c2B2 {c}BA | A4|
w:   |  ri  ya man  |  dır    | 


